images/PARTNERS/SVG/Icon Desarrollo.svg

<svg width="85" height="85" viewBox="0 0 85 85" fill="none" xmlns="http://www.w3.org/2000/svg">
<circle cx="42.5" cy="42.5" r="42.5" fill="white"/>
<path d="M69.2393 14.4038C76.519 21.3267 81.0569 31.1063 81.0569 41.9464C81.0569 62.9351 64.0416 79.9504 43.0529 79.9504C22.0642 79.9504 5.04892 62.9351 5.04892 41.9464C5.04892 28.9387 11.5833 17.4583 21.551 10.6063" stroke="url(#paint0_linear_57_6)" stroke-width="2" stroke-miterlimit="10"/>
<path d="M65.1566 16.1876C68.2324 16.1876 70.7258 13.6943 70.7258 10.6185C70.7258 7.54278 68.2324 5.04939 65.1566 5.04939C62.0809 5.04939 59.5875 7.54278 59.5875 10.6185C59.5875 13.6943 62.0809 16.1876 65.1566 16.1876Z" stroke="url(#paint1_linear_57_6)" stroke-width="2" stroke-miterlimit="10"/>
<path d="M60.6694 50.3534C60.1026 51.3178 59.6271 52.226 59.0428 53.0604C58.8691 53.3081 58.3954 53.4504 58.0567 53.4504C57.6023 53.4521 57.1321 53.3133 56.6952 53.157C55.695 52.7986 54.9651 53.0305 54.2615 53.8649C53.8456 54.3586 53.6842 54.7503 53.872 55.3335C53.9439 55.5548 53.972 55.7902 54.0053 56.0221C54.1018 56.6773 54.5019 57.6786 54.2281 57.9228C53.3771 58.6852 52.2752 59.1701 51.254 59.7339C51.1698 59.7796 50.9435 59.6338 50.8207 59.5319C50.461 59.2333 50.089 58.9399 49.7784 58.5921C48.9958 57.7138 48.1273 57.2289 46.9868 57.893C46.6762 58.0739 46.3165 58.3146 46.1779 58.6185C45.8551 59.3317 45.6919 60.1169 45.3831 60.8371C45.2778 61.0813 44.9374 61.3641 44.6882 61.3817C43.7863 61.4467 42.8757 61.4467 41.9738 61.3782C41.7264 61.3589 41.4194 61.0673 41.2842 60.8213C41.0632 60.4173 40.8912 59.9606 40.8175 59.5073C40.6385 58.3971 40.0876 57.7999 38.9243 57.633C38.3698 57.5539 38.0084 57.5715 37.6083 57.9615C36.9608 58.5921 36.2607 59.1718 35.5027 59.8429C34.5605 59.2895 33.5955 58.752 32.6708 58.1547C32.49 58.0388 32.3637 57.6822 32.3813 57.4485C32.4199 56.9584 32.5269 56.463 32.6848 55.9975C33.041 54.9505 32.8971 54.1302 31.9549 53.4082C31.5162 53.0709 31.1758 52.8619 30.6459 53.0217C30.4231 53.0885 30.1897 53.1201 29.9616 53.1675C27.8069 53.6049 27.8052 53.6067 26.7349 51.6322C26.4997 51.2001 26.2839 50.7574 26.0541 50.3094C26.4927 49.8193 26.8629 49.3187 27.3174 48.9146C28.1824 48.1435 28.5439 47.3372 28.0228 46.169C27.8227 45.7193 27.6701 45.4242 27.2033 45.2994C26.8384 45.2028 26.4822 45.0711 26.1242 44.9499C24.4205 44.3684 24.4205 44.3684 24.4117 42.5678C24.403 40.6478 24.403 40.6478 26.1786 40.0452C26.3436 39.989 26.512 39.9434 26.6787 39.8889C27.6824 39.5604 28.4035 38.5538 28.3403 37.5139C28.3298 37.3347 28.1965 37.1432 28.0736 36.9939C27.721 36.5653 27.3472 36.1525 26.9752 35.7397C26.0242 34.6839 26.0225 34.6857 26.7226 33.4051C27.8069 31.42 27.8069 31.42 30.023 31.8662C31.3566 32.135 32.0654 31.8645 32.7831 30.7384C32.9041 30.5487 32.8989 30.236 32.8638 29.9936C32.7918 29.5035 32.6497 29.0257 32.5532 28.5391C32.2584 27.0547 32.2602 27.0547 33.5253 26.2835C35.4273 25.1347 35.5238 25.0398 37.0416 26.6103C38.0206 27.6239 38.9488 27.4377 39.9999 27.0811C40.1981 27.0143 40.3753 26.7455 40.4683 26.5295C40.6649 26.0763 40.8 25.5967 40.9561 25.1259C41.4632 23.6046 41.4632 23.6046 43.095 23.5783C45.2287 23.5449 45.3708 23.5133 45.834 25.5844C46.1481 26.9915 47.0675 27.2444 48.1484 27.464C48.3572 27.5062 48.6537 27.3815 48.8362 27.2392C49.3204 26.8632 49.8363 26.4908 50.2065 26.0148C50.8505 25.1874 51.4558 25.3016 52.2752 25.7636C54.4089 26.9651 54.4282 26.93 53.9509 29.3472C53.7351 30.4381 54.1966 31.4991 55.1563 31.9927C55.3616 32.0981 55.6669 32.0612 55.9143 32.0208C56.46 31.933 57.0303 31.8768 57.5356 31.6695C58.5182 31.2654 58.9849 31.7134 59.4552 32.5197C60.6694 34.6013 60.7957 34.6804 59.1165 36.3229C58.0901 37.3277 58.5182 38.2376 58.7726 39.2372C58.8147 39.4041 59.0885 39.5569 59.2867 39.6342C59.857 39.8538 60.4308 40.1067 61.0256 40.2051C62.0398 40.372 62.2573 40.9376 62.2696 41.8933C62.2994 44.3579 62.3468 44.3579 60.0307 45.1203C58.9428 45.4786 58.327 46.3078 58.341 47.4707C58.3427 47.6709 58.4989 47.8905 58.634 48.0609C58.9428 48.4491 59.2797 48.8163 59.6113 49.1869C59.9412 49.5576 60.2764 49.9212 60.6694 50.3534ZM34.0411 57.0673C34.2324 57.2219 34.4675 57.4924 34.764 57.6224C35.0062 57.7278 35.3817 57.77 35.5922 57.6523C35.9642 57.4415 36.2993 57.1218 36.5731 56.7863C37.3433 55.8447 38.161 55.8658 39.3577 56.0643C41.2456 56.377 42.0528 57.366 42.3177 59.0576C42.4458 59.871 42.9354 59.9588 43.6179 59.9307C44.4233 59.8973 44.3198 59.2087 44.4373 58.7853C44.7988 57.4854 45.2532 56.6615 46.8254 56.1837C48.6747 55.6216 49.71 56.196 50.7733 57.4029C51.154 57.835 51.4839 57.9211 52.0401 57.6101C52.6034 57.2939 52.6665 56.9356 52.5244 56.4051C52.4419 56.0959 52.4332 55.7604 52.3174 55.4652C51.905 54.4025 52.2226 53.7297 53.0052 52.8285C54.2615 51.381 55.502 50.9875 57.2128 51.6954C57.7076 51.8992 58.0989 51.7991 58.4147 51.2282C58.72 50.6748 58.6603 50.3358 58.2164 49.9581C57.9953 49.7701 57.8462 49.4961 57.6216 49.3152C56.6425 48.5299 56.6741 47.678 56.8934 46.4465C57.2233 44.595 58.1848 43.8098 59.843 43.5568C60.7097 43.4251 60.9308 42.8383 60.6764 42.1972C60.5308 41.8318 59.964 41.5261 59.5289 41.4067C58.2533 41.0536 57.4514 40.581 57.0022 39.0492C56.4846 37.2803 56.9092 36.2175 58.1269 35.1529C58.5235 34.8051 58.834 34.4924 58.4375 33.8231C58.0427 33.1574 57.6146 33.2347 57.0619 33.3629C56.7776 33.4297 56.4723 33.4384 56.2091 33.5491C55.1563 33.9918 54.5177 33.5719 53.6596 32.85C52.2015 31.622 51.7892 30.3713 52.5033 28.6515C52.7016 28.1737 52.6472 27.7539 52.0577 27.4377C51.5172 27.1478 51.1751 27.1531 50.7838 27.6133C50.5399 27.8997 50.1837 28.0929 49.9486 28.3845C49.2538 29.247 48.5081 29.1258 47.4588 28.987C45.448 28.7218 44.6145 27.645 44.3198 25.8514C44.2285 25.2981 43.9478 25.096 43.374 25.0873C42.7669 25.0767 42.4546 25.2752 42.3493 25.8725C42.3002 26.1553 42.1194 26.417 42.0773 26.7016C41.8878 27.9875 41.0754 28.3494 39.9016 28.8254C38.0154 29.5896 36.9696 28.7903 35.88 27.5993C35.5098 27.1952 35.1957 27.1267 34.6816 27.4096C34.1464 27.7047 33.9727 28.0279 34.1499 28.5936C34.2377 28.8711 34.2306 29.182 34.3412 29.4455C34.8307 30.6155 34.3991 31.3445 33.5762 32.3054C32.3742 33.709 31.1881 33.9707 29.5914 33.3664C29.0492 33.1609 28.5913 33.1802 28.2368 33.8495C27.9227 34.4415 28.1438 34.7296 28.5 35.116C29.43 36.1279 30.3108 36.9026 29.7774 38.74C29.2563 40.5371 28.3246 41.1765 26.7928 41.5033C26.1909 41.6315 25.9225 41.888 25.926 42.5573C25.9277 43.2195 26.2488 43.4128 26.7875 43.527C27.07 43.5867 27.3314 43.7571 27.6139 43.8045C28.8053 44.0048 29.2194 44.7057 29.637 45.8651C30.2827 47.6551 29.8248 48.8215 28.5193 49.9212C28.1193 50.2567 27.9087 50.5835 28.2386 51.1772C28.5684 51.771 28.9404 51.8483 29.5072 51.7077C30.1283 51.5532 30.753 51.3687 31.3864 51.3178C31.7215 51.2914 32.1532 51.4302 32.4093 51.6498C33.0515 52.1979 33.5867 52.8724 34.2306 53.4187C34.6324 53.7595 34.7061 54.0669 34.5763 54.5518C34.3675 55.3072 34.2429 56.0871 34.0411 57.0673Z" fill="url(#paint2_linear_57_6)"/>
<path d="M54.3655 42.5222C54.362 48.6459 49.4771 53.5382 43.3552 53.547C37.2368 53.5576 32.3414 48.6775 32.3186 42.5468C32.2958 36.3984 37.2421 31.4429 43.3745 31.471C49.4929 31.4991 54.369 36.4002 54.3655 42.5222ZM43.3237 52.0222C48.4945 52.0468 52.7899 47.7729 52.8425 42.552C52.8952 37.3716 48.5033 32.9677 43.3131 32.9975C38.1264 33.0274 33.8101 37.3611 33.8364 42.5169C33.8644 47.7289 38.1247 51.9976 43.3237 52.0222Z" fill="url(#paint3_linear_57_6)"/>
<defs>
<linearGradient id="paint0_linear_57_6" x1="5.04892" y1="79.952" x2="81.0569" y2="79.952" gradientUnits="userSpaceOnUse">
<stop stop-color="#1723FF"/>
<stop offset="1" stop-color="#30E35E"/>
</linearGradient>
<linearGradient id="paint1_linear_57_6" x1="59.5875" y1="16.1879" x2="70.7258" y2="16.1879" gradientUnits="userSpaceOnUse">
<stop stop-color="#1723FF"/>
<stop offset="1" stop-color="#30E35E"/>
</linearGradient>
<linearGradient id="paint2_linear_57_6" x1="24.4106" y1="61.4309" x2="62.277" y2="61.4309" gradientUnits="userSpaceOnUse">
<stop stop-color="#1723FF"/>
<stop offset="1" stop-color="#30E35E"/>
</linearGradient>
<linearGradient id="paint3_linear_57_6" x1="32.3185" y1="53.5475" x2="54.3655" y2="53.5475" gradientUnits="userSpaceOnUse">
<stop stop-color="#1723FF"/>
<stop offset="1" stop-color="#30E35E"/>
</linearGradient>
</defs>
</svg>

<svg width="85" height="85" fill="none" xmlns="http://www.w3.org/2000/svg"><circle cx="42.5" cy="42.5" r="42.5" fill="#fff"/><path d="M69.24 14.404c7.279 6.923 11.817 16.702 11.817 27.542 0 20.99-17.015 38.004-38.004 38.004-20.989 0-38.004-17.015-38.004-38.004 0-13.007 6.534-24.488 16.502-31.34" stroke="url(#a)" stroke-width="2" stroke-miterlimit="10"/><path d="M65.157 16.188a5.57 5.57 0 1 0 0-11.139 5.57 5.57 0 0 0 0 11.139Z" stroke="url(#b)" stroke-width="2" stroke-miterlimit="10"/><path d="M60.67 50.353c-.567.965-1.043 1.873-1.627 2.707-.174.248-.648.39-.986.39-.455.002-.925-.137-1.362-.293-1-.358-1.73-.126-2.434.708-.415.494-.577.885-.389 1.468.072.222.1.457.133.69.097.654.497 1.656.223 1.9-.85.762-1.953 1.247-2.974 1.81-.084.047-.31-.1-.433-.201-.36-.299-.732-.592-1.043-.94-.782-.878-1.65-1.363-2.791-.699-.31.18-.67.422-.81.725-.322.714-.485 1.499-.794 2.22-.105.243-.446.526-.695.544-.902.065-1.812.065-2.714-.004-.248-.02-.555-.31-.69-.557a4.202 4.202 0 0 1-.466-1.314c-.18-1.11-.73-1.707-1.894-1.874-.554-.08-.916-.062-1.316.328-.647.631-1.347 1.21-2.105 1.882-.943-.554-1.907-1.091-2.832-1.688-.181-.116-.307-.473-.29-.706.039-.49.146-.986.304-1.451.356-1.047.212-1.868-.73-2.59-.439-.337-.78-.546-1.31-.386-.222.067-.455.098-.683.145-2.155.438-2.157.44-3.227-1.535-.235-.432-.451-.875-.68-1.323.438-.49.808-.99 1.262-1.394.865-.771 1.227-1.578.706-2.746-.2-.45-.353-.745-.82-.87-.365-.096-.72-.228-1.079-.35-1.703-.58-1.703-.58-1.712-2.381-.009-1.92-.009-1.92 1.767-2.523.165-.056.333-.102.5-.156 1.003-.329 1.725-1.335 1.661-2.375-.01-.18-.143-.37-.266-.52-.353-.429-.727-.841-1.099-1.254-.95-1.056-.953-1.054-.252-2.335 1.084-1.985 1.084-1.985 3.3-1.539 1.334.269 2.042-.002 2.76-1.128.121-.19.116-.502.08-.744-.071-.49-.213-.968-.31-1.455-.295-1.484-.293-1.484.972-2.256 1.902-1.148 1.999-1.243 3.517.327.979 1.014 1.907.828 2.958.471.198-.067.375-.335.468-.552.197-.453.332-.932.488-1.403.507-1.521.507-1.521 2.139-1.548 2.134-.033 2.276-.065 2.739 2.006.314 1.407 1.233 1.66 2.314 1.88.21.042.506-.082.688-.225.484-.376 1-.748 1.37-1.224.644-.828 1.25-.713 2.07-.251 2.133 1.201 2.152 1.166 1.675 3.583-.216 1.091.246 2.152 1.205 2.646.206.105.51.068.758.028.546-.088 1.116-.144 1.622-.352.982-.404 1.449.044 1.92.85 1.213 2.082 1.34 2.161-.34 3.804-1.026 1.005-.598 1.915-.343 2.914.042.167.316.32.514.397.57.22 1.144.473 1.739.571 1.014.167 1.231.733 1.244 1.688.03 2.465.077 2.465-2.24 3.227-1.087.359-1.703 1.188-1.689 2.35.002.2.158.42.293.59.309.39.646.756.977 1.127.33.37.665.734 1.058 1.166ZM34.04 57.067c.191.155.427.425.723.555.242.106.618.148.828.03.372-.21.707-.53.981-.866.77-.941 1.588-.92 2.785-.722 1.888.313 2.695 1.302 2.96 2.994.128.813.617.9 1.3.873.805-.034.702-.722.82-1.146.36-1.3.815-2.123 2.387-2.601 1.85-.562 2.885.012 3.948 1.219.381.432.71.518 1.267.207.563-.316.627-.674.484-1.205-.082-.31-.09-.645-.207-.94-.412-1.063-.094-1.735.688-2.637 1.256-1.447 2.497-1.84 4.208-1.133.495.204.886.104 1.202-.467.305-.553.245-.892-.199-1.27-.22-.188-.37-.462-.594-.643-.98-.785-.948-1.637-.729-2.868.33-1.852 1.292-2.637 2.95-2.89.867-.132 1.088-.719.833-1.36-.145-.365-.712-.67-1.147-.79-1.276-.353-2.078-.826-2.527-2.358-.517-1.769-.093-2.831 1.125-3.896.396-.348.707-.66.31-1.33-.394-.666-.822-.588-1.375-.46-.284.067-.59.075-.853.186-1.053.443-1.691.023-2.55-.699-1.457-1.228-1.87-2.479-1.156-4.199.199-.477.144-.897-.445-1.213-.54-.29-.883-.285-1.274.175-.244.287-.6.48-.835.771-.695.863-1.44.742-2.49.603-2.011-.265-2.845-1.342-3.14-3.136-.09-.553-.371-.755-.945-.764-.607-.01-.92.188-1.025.785-.049.283-.23.545-.272.83-.19 1.285-1.002 1.647-2.175 2.123-1.887.765-2.932-.035-4.022-1.226-.37-.404-.684-.472-1.198-.19-.536.296-.71.619-.532 1.185.088.277.08.588.191.851.49 1.17.058 1.9-.765 2.86-1.202 1.404-2.388 1.666-3.985 1.061-.542-.205-1-.186-1.354.483-.314.593-.093.88.263 1.267.93 1.012 1.81 1.787 1.277 3.624-.52 1.797-1.452 2.436-2.984 2.763-.602.129-.87.385-.867 1.054.002.662.323.856.862.97.282.06.543.23.826.277 1.191.2 1.605.902 2.023 2.061.646 1.79.188 2.956-1.118 4.056-.4.336-.61.663-.28 1.256.33.594.701.671 1.268.53.621-.154 1.246-.338 1.88-.39a1.54 1.54 0 0 1 1.022.333c.642.548 1.178 1.222 1.822 1.769.401.34.475.648.345 1.133-.209.755-.333 1.535-.535 2.515Z" fill="url(#c)"/><path d="M54.365 42.522a10.977 10.977 0 0 1-11.01 11.025c-6.118.01-11.014-4.87-11.036-11-.023-6.149 4.923-11.104 11.055-11.076a10.994 10.994 0 0 1 10.991 11.051Zm-11.041 9.5c5.17.025 9.466-4.25 9.519-9.47.052-5.18-4.34-9.584-9.53-9.554-5.187.03-9.503 4.363-9.477 9.519.028 5.212 4.289 9.48 9.488 9.505Z" fill="url(#d)"/><defs><linearGradient id="a" x1="5.049" y1="79.952" x2="81.057" y2="79.952" gradientUnits="userSpaceOnUse"><stop stop-color="#1723FF"/><stop offset="1" stop-color="#30E35E"/></linearGradient><linearGradient id="b" x1="59.587" y1="16.188" x2="70.726" y2="16.188" gradientUnits="userSpaceOnUse"><stop stop-color="#1723FF"/><stop offset="1" stop-color="#30E35E"/></linearGradient><linearGradient id="c" x1="24.411" y1="61.431" x2="62.277" y2="61.431" gradientUnits="userSpaceOnUse"><stop stop-color="#1723FF"/><stop offset="1" stop-color="#30E35E"/></linearGradient><linearGradient id="d" x1="32.319" y1="53.547" x2="54.365" y2="53.547" gradientUnits="userSpaceOnUse"><stop stop-color="#1723FF"/><stop offset="1" stop-color="#30E35E"/></linearGradient></defs></svg>
